X:84
T: SENTER KLOS DEN HEILGEN MANN
N: K1678
O: Europa, Mitteleuropa, Deutschland, Niederrhein, Moers
R: Kinder -, Ansinge - Lied, Bettel - Reim
M: 2/4
L: 1/16
K: G
 | G2G2A2A2 | B2A2G2z2 |
G2G2AAA2 | B2A2G2z2 |
B2B2A2G2 | B2B2B2
B2 | A2A2A2G2 | B4B2
B2 | AAA2A2G2 | B4B2
B2 | A2A2A2G2 | B4B2
BB | A2A2A2B2 | G4G2z2

@@@ Tune index: 7421
